actions/22x22-light/edit-clear-locationbar-rtl.svg

<svg xmlns="http://www.w3.org/2000/svg" viewBox="0 0 22 22">
 <defs id="defs3051">
   <style type="text/css" id="current-color-scheme">
     .ColorScheme-Text {
       color:#4d4d4d;
     }
     </style>
 </defs>
   <path
      style="fill:currentColor;fill-opacity:1;stroke:none"
      d="m14.33398 4.5 5.88086 5.73438.78516.76562-.78516.76563-5.88086 5.73437h-10.27929-1.55469-.5-.5c-.277 0-.5-.223-.5-.5v-12c0-.277.223-.5.5-.5h1 1.55469zm-2.76757 3.25-2.23243 2.17773-2.23437-2.17773-1.09961 1.07227 2.23242 2.17773-2.23242 2.17773 1.09961 1.07227 2.23437-2.17773 2.23243 2.17773 1.09961-1.07227-2.23243-2.17773 2.23243-2.17773z"
      class="ColorScheme-Text" />
</svg>

<svg xmlns="http://www.w3.org/2000/svg" viewBox="0 0 22 22">
  <defs id="defs3051">
    <style type="text/css" id="current-color-scheme">
      .ColorScheme-Text {
        color:#4d4d4d
      }
      </style>
  </defs>
    <path
       style="fill:currentColor;fill-opacity:1;stroke:none"
       class="ColorScheme-Text"
       d="M 14.33398,4.5 20.21484,10.23438 21,11 20.21484,11.76563 14.33398,17.5 4.05469,17.5 2.5,17.5 2,17.5 1.5,17.5 C 1.223,17.5 1,17.277 1,17 L 1,5 C 1,4.723 1.223,4.5 1.5,4.5 l 1,0 1.55469,0 10.27929,0 z M 11.56641,7.75 9.33398,9.92773 7.09961,7.75 6,8.82227 8.23242,11 6,13.17773 7.09961,14.25 9.33398,12.07227 11.56641,14.25 12.66602,13.17773 10.43359,11 12.66602,8.82227 11.56641,7.75 Z"
        />
</svg>
